app/assets/images/icons/instagramIcon.svg

<svg viewBox="0 0 63 63" fill="none" xmlns="http://www.w3.org/2000/svg">
  <path d="M62.4815 13.1341C62.2967 9.84842 60.9082 6.74584 58.5811 4.4188C56.254 2.09177 53.1514 0.703301 49.8656 0.518508C37.6318 -0.172836 25.3689 -0.172836 13.1351 0.518508C9.8493 0.703405 6.74664 2.09189 4.41946 4.41888C2.09228 6.74588 0.703601 9.8484 0.51852 13.1341C-0.17284 25.3679 -0.17284 37.6308 0.51852 49.8646C0.703631 53.1503 2.09232 56.2528 4.41949 58.5798C6.74667 60.9068 9.84931 62.2953 13.1351 62.4802C25.3688 63.1733 37.6319 63.1733 49.8656 62.4802C53.1513 62.2954 56.254 60.9069 58.5811 58.5799C60.9081 56.2528 62.2967 53.1503 62.4815 49.8646C63.1728 37.6308 63.1728 25.3679 62.4815 13.1341Z" fill="white"/>
  <path d="M26 51H38C48 51 52 47 52 37V25C52 15 48 11 38 11H26C16 11 12 15 12 25V37C12 47 16 51 26 51Z" stroke="#F18CE7" stroke-width="5.25465" stroke-linecap="round" stroke-linejoin="round"/>
  <path d="M32 38C35.866 38 39 34.866 39 31C39 27.134 35.866 24 32 24C28.134 24 25 27.134 25 31C25 34.866 28.134 38 32 38Z" stroke="#F18CE7" stroke-width="5.25465" stroke-linecap="round" stroke-linejoin="round"/>
  <path d="M43.2722 21H43.2954" stroke="#F18CE7" stroke-width="7.0062" stroke-linecap="round" stroke-linejoin="round"/>
</svg>

<svg version="1.2" xmlns="http://www.w3.org/2000/svg" viewBox="0 0 63 63" width="63" height="63"><style>.a{fill:#fff}.b{fill:none;stroke:#f18ce7;stroke-linecap:round;stroke-linejoin:round;stroke-width:3.5}.c{fill:none;stroke:#f18ce7;stroke-linecap:round;stroke-linejoin:round;stroke-width:5.3}.d{fill:none;stroke:#f18ce7;stroke-linecap:round;stroke-linejoin:round;stroke-width:5.4}</style><path class="a" d="m62.5 13.1c-0.2-3.3-1.6-6.4-3.9-8.7-2.3-2.3-5.4-3.7-8.7-3.9q-18.4-1-36.8 0c-3.3 0.2-6.4 1.6-8.7 3.9-2.3 2.3-3.7 5.4-3.9 8.7q-1 18.4 0 36.8c0.2 3.3 1.6 6.4 3.9 8.7 2.3 2.3 5.4 3.7 8.7 3.9q18.4 1 36.8 0c3.3-0.2 6.4-1.6 8.7-3.9 2.3-2.3 3.7-5.4 3.9-8.7q1-18.4 0-36.8z"/><path class="b" d="m26 51h12c10 0 14-4 14-14v-12c0-10-4-14-14-14h-12c-10 0-14 4-14 14v12c0 10 4 14 14 14z"/><path class="c" d="m32 38c3.9 0 7-3.1 7-7 0-3.9-3.1-7-7-7-3.9 0-7 3.1-7 7 0 3.9 3.1 7 7 7z"/><path class="d" d="m43.1 20.7l0.2 0.3"/></svg>
